X: 11375
T: Earl's Chair, The
R: reel
M: 4/4
K: Dmajor
|:B4 BAFA|B2 dB BAFB|A ~F3 D ~F3|AFdB ADFA|
BBdB BAFA|B2 dB BAFB|~A3 B defd|1 edef d3 c:|2 edef d2 Bd||
|:e ~B3 defd|edef d ~B3|e ~B3 dBde|fedB AABd|
e3 f e ~B3|g3 f defg|afbf afeg|1 fedB AABd:|2 fedB ADFA||

